src/assets/icons/ico_kitchen.svg

<?xml version="1.0" encoding="utf-8"?>
<!-- Generator: Adobe Illustrator 26.0.1, SVG Export Plug-In . SVG Version: 6.00 Build 0)  -->
<svg version="1.1" id="Layer_1" xmlns="http://www.w3.org/2000/svg" xmlns:xlink="http://www.w3.org/1999/xlink" x="0px" y="0px"
	 viewBox="0 0 64 64" style="enable-background:new 0 0 64 64;" xml:space="preserve">
<style type="text/css">
	.st0{fill:#43BBC4;}
</style>
<path class="st0" d="M55.6909,19.6475c0-0.2764-0.2236-0.5-0.5-0.5h-4.3442c0.9291-0.7767,1.5337-1.9292,1.5337-3.2319v-0.2002
	h0.8418c0.2764,0,0.5-0.2236,0.5-0.5s-0.2236-0.5-0.5-0.5h-0.8418v-0.6616c0-0.2764-0.2236-0.5-0.5-0.5h-7.4609
	c-0.2764,0-0.5,0.2236-0.5,0.5v0.6616h-0.8442c-0.2764,0-0.5,0.2236-0.5,0.5s0.2236,0.5,0.5,0.5h0.8442v0.2002
	c0,1.3027,0.6046,2.4553,1.5337,3.2319H33.0586V18.48c0-0.2764-0.2236-0.5-0.5-0.5s-0.5,0.2236-0.5,0.5v0.6675h-2.6904v-6.3936
	c0-1.0093,0.8213-1.8306,1.8306-1.8306c0.8464,0,1.5538,0.5806,1.7623,1.3623h-0.5504c-0.2764,0-0.5,0.2236-0.5,0.5
	s0.2236,0.5,0.5,0.5h2.2378c0.2764,0,0.5-0.2236,0.5-0.5s-0.2236-0.5-0.5-0.5h-0.6665c-0.2249-1.3373-1.383-2.3623-2.7832-2.3623
	c-1.5605,0-2.8306,1.27-2.8306,2.8306v6.3936H16.5493v-1.4771c0-1.729-1.4067-3.1357-3.1357-3.1357s-3.1357,1.4067-3.1357,3.1357
	v1.4771H8.8091c-0.2764,0-0.5,0.2236-0.5,0.5v23.0166c0,0.7393,0.6064,1.3408,1.3521,1.3408h13.5991
	c-0.0566,0.4178-0.0952,0.8293-0.0952,1.2373c0,4.8711,3.9634,8.834,8.835,8.834s8.835-3.9629,8.835-8.834
	c0-0.408-0.0386-0.8195-0.0952-1.2373h13.5991c0.7456,0,1.3521-0.6016,1.3521-1.3408V19.6475z M44.9194,15.9155v-1.3618h6.4609
	v1.3618c0,1.7812-1.4492,3.2305-3.2305,3.2305S44.9194,17.6968,44.9194,15.9155z M11.2778,17.6704
	c0-1.1777,0.958-2.1357,2.1357-2.1357s2.1357,0.958,2.1357,2.1357v1.4756h-4.2715V17.6704z M54.6909,20.1475v2.7388H9.3091v-2.7388
	H54.6909z M24.1626,41.1725v-7.4889h15.6748v7.4861c-1.4999-2.8561-4.5038-4.7625-7.8374-4.7625
	C28.6672,36.4072,25.6639,38.3129,24.1626,41.1725z M39.8374,32.6836H24.1626v-8.7974h15.6748V32.6836z M9.3091,42.6641V23.8862
	h13.8535v19.1187H9.6611C9.4639,43.0049,9.3091,42.8555,9.3091,42.6641z M32,53.0762c-4.3203,0-7.835-3.5146-7.835-7.834
	c0-0.5352,0.0542-1.0723,0.1636-1.6328c0.7715-3.5938,3.9976-6.2021,7.6714-6.2021c3.6724,0,6.8979,2.6064,7.6704,6.1982
	c0.1108,0.5674,0.1646,1.1035,0.1646,1.6367C39.835,49.5615,36.3203,53.0762,32,53.0762z M54.3389,43.0049H40.8374V23.8862h13.8535
	v18.7778C54.6909,42.8555,54.5361,43.0049,54.3389,43.0049z"/>
<path class="st0" d="M51.6226,31.0762c-0.2764,0-0.5,0.2236-0.5,0.5v1.6396c0,0.2764,0.2236,0.5,0.5,0.5s0.5-0.2236,0.5-0.5v-1.6396
	C52.1226,31.2998,51.8989,31.0762,51.6226,31.0762z"/>
<path class="st0" d="M19.9282,31.0762c-0.2764,0-0.5,0.2236-0.5,0.5v1.6396c0,0.2764,0.2236,0.5,0.5,0.5s0.5-0.2236,0.5-0.5v-1.6396
	C20.4282,31.2998,20.2046,31.0762,19.9282,31.0762z"/>
<path class="st0" d="M32.9159,43.77c0.2177-1.0145-0.0923-2.0981-0.8368-2.8325c-0.8174-0.8281-2.0225-1.1211-3.1431-0.7646
	c-0.0064,0.0021-0.0106,0.0071-0.0169,0.0094c-0.0303,0.0109-0.0564,0.0302-0.0845,0.0471
	c-0.0296,0.0179-0.0602,0.0332-0.085,0.0564c-0.0046,0.0043-0.0107,0.0056-0.0153,0.0101
	c-0.0171,0.0171-0.0243,0.0391-0.0384,0.0578c-0.0217,0.0288-0.0438,0.0559-0.0588,0.0886
	c-0.0136,0.0297-0.0192,0.0601-0.0267,0.0914c-0.0076,0.0311-0.0166,0.0605-0.0181,0.093
	c-0.0016,0.0349,0.0055,0.0682,0.0112,0.1027c0.0039,0.0242,0.0002,0.0482,0.0079,0.0723c0.0021,0.0065,0.0072,0.0107,0.0095,0.017
	c0.0109,0.03,0.0302,0.056,0.0469,0.0839c0.0178,0.0292,0.0328,0.0594,0.0557,0.0839c0.0046,0.0049,0.006,0.0115,0.0109,0.0163
	l1.3936,1.3936l-0.9639,0.9639l-1.3936-1.3936c-0.0037-0.0037-0.0087-0.0048-0.0125-0.0083
	c-0.0247-0.0235-0.0559-0.0387-0.0857-0.0569c-0.0276-0.0168-0.0531-0.0367-0.0829-0.0477
	c-0.0053-0.002-0.0088-0.0063-0.0142-0.0082c-0.0266-0.009-0.0532-0.0057-0.08-0.0101c-0.0319-0.0051-0.0624-0.0132-0.0947-0.0121
	c-0.0377,0.0012-0.0724,0.0116-0.1083,0.0211c-0.0262,0.0068-0.052,0.0103-0.077,0.0214c-0.0369,0.0164-0.0676,0.0412-0.0996,0.0661
	c-0.0168,0.0129-0.0367,0.0193-0.0521,0.0347c-0.0034,0.0034-0.0043,0.0081-0.0076,0.0115
	c-0.0234,0.0248-0.0387,0.0559-0.0569,0.0857c-0.0173,0.0283-0.0374,0.0545-0.0486,0.085
	c-0.0018,0.0049-0.0058,0.0081-0.0074,0.0131c-0.186,0.5566-0.2056,1.1416-0.0625,1.666c0.1182,0.5547,0.3994,1.0664,0.813,1.4805
	c0.5977,0.5967,1.3853,0.916,2.1914,0.916c0.2169,0,0.4344-0.0321,0.6509-0.0791l3.8223,3.8223
	c0.3145,0.3145,0.7388,0.4883,1.1812,0.4883c0.0488,0,0.0977-0.002,0.1465-0.0059c0.4946-0.043,0.9429-0.3018,1.2295-0.71
	c0.4648-0.6592,0.3628-1.6084-0.2368-2.207L32.9159,43.77z M36.0972,49.165c-0.1187,0.168-0.2954,0.2715-0.498,0.2881
	c-0.1973,0.0225-0.3936-0.0527-0.5342-0.1924l-4.0195-4.0195c-0.0153-0.0153-0.0352-0.0215-0.0519-0.0345
	c-0.0317-0.0248-0.0623-0.0493-0.0989-0.0657c-0.0254-0.0114-0.0518-0.0153-0.0784-0.0222
	c-0.0353-0.0093-0.0692-0.0194-0.1063-0.0206c-0.0344-0.0013-0.0672,0.0068-0.1012,0.0126
	c-0.0247,0.0043-0.0491,0.0009-0.0736,0.0092c-0.749,0.248-1.5669,0.0479-2.1343-0.5186c-0.2773-0.2773-0.4648-0.6172-0.5493-1.0088
	c-0.0129-0.0479-0.0077-0.0988-0.0167-0.1476l0.9757,0.9757c0.0977,0.0977,0.2256,0.1465,0.3535,0.1465s0.2559-0.0488,0.3535-0.1465
	l1.6709-1.6709c0.1953-0.1953,0.1953-0.5117,0-0.707l-0.9777-0.9777c0.4316,0.0679,0.8406,0.2551,1.1613,0.5803
	c0.5571,0.5488,0.7598,1.3818,0.5156,2.1221c-0.0081,0.0244-0.0046,0.0489-0.0088,0.0735
	c-0.0058,0.0345-0.0136,0.0676-0.0123,0.1025c0.0013,0.0335,0.0109,0.064,0.0187,0.0962c0.0073,0.0302,0.012,0.0599,0.025,0.0886
	c0.0153,0.0337,0.0383,0.0616,0.0606,0.0912c0.0141,0.0187,0.0213,0.0407,0.0383,0.0577l3.9619,3.9629
	C36.1924,48.4619,36.312,48.8604,36.0972,49.165z"/>
</svg>

<?xml version="1.0" encoding="UTF-8" standalone="no"?>
<!DOCTYPE svg PUBLIC "-//W3C//DTD SVG 1.1//EN" "http://www.w3.org/Graphics/SVG/1.1/DTD/svg11.dtd">
<svg width="100%" height="100%" viewBox="0 0 65 64" version="1.1" xmlns="http://www.w3.org/2000/svg" xmlns:xlink="http://www.w3.org/1999/xlink" xml:space="preserve" xmlns:serif="http://www.serif.com/" style="fill-rule:evenodd;clip-rule:evenodd;stroke-linejoin:round;stroke-miterlimit:2;">
    <g transform="matrix(1,0,0,1,-219,0)">
        <g transform="matrix(0.0625,0,0,0.0833333,219.535,7.10543e-15)">
            <rect id="ico_kitchen" x="0" y="0" width="1024" height="768" style="fill:none;"/>
            <g id="ico_kitchen1" serif:id="ico_kitchen">
                <g id="ico_kitchen.svg" transform="matrix(16,0,0,12,512,384)">
                    <g transform="matrix(1,0,0,1,-32,-32)">
                        <g>
                            <path d="M55.691,19.648C55.691,19.371 55.467,19.148 55.191,19.148L50.847,19.148C51.776,18.371 52.38,17.218 52.38,15.916L52.38,15.715L53.222,15.715C53.499,15.715 53.722,15.492 53.722,15.215C53.722,14.939 53.499,14.715 53.222,14.715L52.38,14.715L52.38,14.054C52.38,13.777 52.157,13.554 51.88,13.554L44.42,13.554C44.143,13.554 43.92,13.777 43.92,14.054L43.92,14.715L43.075,14.715C42.799,14.715 42.575,14.939 42.575,15.215C42.575,15.492 42.799,15.715 43.075,15.715L43.92,15.715L43.92,15.916C43.92,17.218 44.524,18.371 45.453,19.148L33.059,19.148L33.059,18.48C33.059,18.204 32.835,17.98 32.559,17.98C32.282,17.98 32.059,18.204 32.059,18.48L32.059,19.148L29.368,19.148L29.368,12.754C29.368,11.745 30.19,10.923 31.199,10.923C32.045,10.923 32.753,11.504 32.961,12.286L32.411,12.286C32.134,12.286 31.911,12.509 31.911,12.786C31.911,13.062 32.134,13.286 32.411,13.286L34.649,13.286C34.925,13.286 35.149,13.062 35.149,12.786C35.149,12.509 34.925,12.286 34.649,12.286L33.982,12.286C33.757,10.948 32.599,9.923 31.199,9.923C29.638,9.923 28.368,11.193 28.368,12.754L28.368,19.148L16.549,19.148L16.549,17.67C16.549,15.941 15.143,14.535 13.414,14.535C11.685,14.535 10.278,15.941 10.278,17.67L10.278,19.148L8.809,19.148C8.533,19.148 8.309,19.371 8.309,19.648L8.309,42.664C8.309,43.403 8.916,44.005 9.661,44.005L23.26,44.005C23.204,44.423 23.165,44.834 23.165,45.242C23.165,50.113 27.129,54.076 32,54.076C36.872,54.076 40.835,50.113 40.835,45.242C40.835,44.834 40.797,44.423 40.74,44.005L54.339,44.005C55.085,44.005 55.691,43.403 55.691,42.664L55.691,19.648L55.691,19.648ZM44.919,15.916L44.919,14.554L51.38,14.554L51.38,15.916C51.38,17.697 49.931,19.146 48.15,19.146C46.369,19.146 44.919,17.697 44.919,15.916ZM11.278,17.67C11.278,16.493 12.236,15.535 13.413,15.535C14.591,15.535 15.549,16.493 15.549,17.67L15.549,19.146L11.278,19.146L11.278,17.67L11.278,17.67ZM54.691,20.148L54.691,22.886L9.309,22.886L9.309,20.148L54.691,20.148ZM24.163,41.173L24.163,33.684L39.837,33.684L39.837,41.17C38.338,38.314 35.334,36.407 32,36.407C28.667,36.407 25.664,38.313 24.163,41.173ZM39.837,32.684L24.163,32.684L24.163,23.886L39.837,23.886L39.837,32.684ZM9.309,42.664L9.309,23.886L23.163,23.886L23.163,43.005L9.661,43.005C9.464,43.005 9.309,42.856 9.309,42.664ZM32,53.076C27.68,53.076 24.165,49.562 24.165,45.242C24.165,44.707 24.219,44.17 24.329,43.609C25.1,40.016 28.326,37.407 32,37.407C35.672,37.407 38.898,40.014 39.67,43.605C39.781,44.173 39.835,44.709 39.835,45.242C39.835,49.562 36.32,53.076 32,53.076ZM54.339,43.005L40.837,43.005L40.837,23.886L54.691,23.886L54.691,42.664C54.691,42.856 54.536,43.005 54.339,43.005Z" style="fill:rgb(26,91,87);fill-rule:nonzero;"/>
                            <path d="M51.623,31.076C51.346,31.076 51.123,31.3 51.123,31.576L51.123,33.216C51.123,33.492 51.346,33.716 51.623,33.716C51.899,33.716 52.123,33.492 52.123,33.216L52.123,31.576C52.123,31.3 51.899,31.076 51.623,31.076Z" style="fill:rgb(26,91,87);fill-rule:nonzero;"/>
                            <path d="M19.928,31.076C19.652,31.076 19.428,31.3 19.428,31.576L19.428,33.216C19.428,33.492 19.652,33.716 19.928,33.716C20.205,33.716 20.428,33.492 20.428,33.216L20.428,31.576C20.428,31.3 20.205,31.076 19.928,31.076Z" style="fill:rgb(26,91,87);fill-rule:nonzero;"/>
                            <path d="M32.916,43.77C33.134,42.756 32.824,41.672 32.079,40.938C31.262,40.109 30.057,39.816 28.936,40.173C28.93,40.175 28.925,40.18 28.919,40.182C28.889,40.193 28.863,40.213 28.835,40.229C28.805,40.247 28.774,40.263 28.75,40.286C28.745,40.29 28.739,40.291 28.734,40.296C28.717,40.313 28.71,40.335 28.696,40.354C28.674,40.382 28.652,40.41 28.637,40.442C28.624,40.472 28.618,40.502 28.61,40.534C28.603,40.565 28.594,40.594 28.592,40.627C28.591,40.662 28.598,40.695 28.604,40.729C28.607,40.754 28.604,40.778 28.611,40.802C28.613,40.808 28.619,40.812 28.621,40.819C28.632,40.849 28.651,40.875 28.668,40.903C28.686,40.932 28.701,40.962 28.724,40.987C28.728,40.991 28.73,40.998 28.734,41.003L30.128,42.396L29.164,43.36L27.771,41.967C27.767,41.963 27.762,41.962 27.758,41.958C27.733,41.935 27.702,41.92 27.672,41.902C27.645,41.885 27.619,41.865 27.589,41.854C27.584,41.852 27.581,41.848 27.575,41.846C27.549,41.837 27.522,41.84 27.495,41.836C27.463,41.83 27.433,41.822 27.401,41.823C27.363,41.825 27.328,41.835 27.292,41.845C27.266,41.851 27.24,41.855 27.215,41.866C27.178,41.882 27.148,41.907 27.116,41.932C27.099,41.945 27.079,41.951 27.064,41.967C27.06,41.97 27.059,41.975 27.056,41.978C27.033,42.003 27.017,42.034 26.999,42.064C26.982,42.092 26.962,42.118 26.95,42.149C26.949,42.154 26.945,42.157 26.943,42.162C26.757,42.719 26.737,43.304 26.881,43.828C26.999,44.383 27.28,44.894 27.694,45.309C28.291,45.905 29.079,46.225 29.885,46.225C30.102,46.225 30.319,46.192 30.536,46.145L34.358,49.968C34.673,50.282 35.097,50.456 35.539,50.456C35.588,50.456 35.637,50.454 35.686,50.45C36.18,50.407 36.629,50.148 36.915,49.74C37.38,49.081 37.278,48.132 36.679,47.533L32.916,43.77ZM36.097,49.165C35.979,49.333 35.802,49.437 35.599,49.453C35.402,49.476 35.206,49.4 35.065,49.261L31.046,45.241C31.03,45.226 31.01,45.22 30.994,45.207C30.962,45.182 30.931,45.157 30.895,45.141C30.869,45.13 30.843,45.126 30.816,45.119C30.781,45.109 30.747,45.099 30.71,45.098C30.676,45.097 30.643,45.105 30.609,45.111C30.584,45.115 30.56,45.112 30.535,45.12C29.786,45.368 28.968,45.168 28.401,44.601C28.124,44.324 27.936,43.984 27.852,43.593C27.839,43.545 27.844,43.494 27.835,43.445L28.811,44.421C28.908,44.518 29.036,44.567 29.164,44.567C29.292,44.567 29.42,44.518 29.518,44.421L31.189,42.75C31.384,42.555 31.384,42.238 31.189,42.043L30.211,41.065C30.642,41.133 31.051,41.32 31.372,41.645C31.929,42.194 32.132,43.027 31.888,43.768C31.88,43.792 31.883,43.816 31.879,43.841C31.873,43.876 31.865,43.909 31.867,43.944C31.868,43.977 31.878,44.008 31.885,44.04C31.893,44.07 31.897,44.1 31.91,44.128C31.926,44.162 31.949,44.19 31.971,44.22C31.985,44.238 31.992,44.26 32.009,44.277L35.971,48.24C36.192,48.462 36.312,48.86 36.097,49.165Z" style="fill:rgb(26,91,87);fill-rule:nonzero;"/>
                        </g>
                    </g>
                </g>
            </g>
        </g>
    </g>
</svg>
